X:1
T:Title
%%score 1 { 2 | 3 }
L:1/8
Q:1/4=110
M:3/4
K:D
V:1 treble nm="Grand Piano, Soprano"
V:2 bass nm="Choir Pad, I Am Sheltered in Thee"
V:3 bass 
V:1
 D>[DE] [DF]2 [DE]2 | D2 [FA]4 | [FA]>[FA] [GB]2 [Bd]2 | [GB]2 [FA]4 | D>[DE] [DF]2 [DF]2 | %5
w: By~Frank~Marion~Davis * * *|||||
 [EG]2 [FA]2 [FA]2 | [DF]2 [CE]4 | D>[DE] [DF]2 [DE]2 | D2 [FA]4 | [FA]>[FA] [GB]2 [Bd]2 | %10
w: |||||
 [GB]2 [FA]4 | D>[DE] [DF]2 [DF]2 | [DG]2 [DF]2 D2 | [CE]2 D4 | z2 [DF]2 [GB]2 | [FA]2 [EG]4- | %16
w: ||||||
 [EG]2 [CE]2 [FA]2 | [EG]2 [DF]4 | [FA]>[FA] [Fd]2 [Ac]2 | [GB]2 [FA]2 [DF]2 | D[DG] [DF]2 D2 | %21
w: |||||
 [CE]2 D4- | D4 z2 |] %23
w: ||
V:2
 F,>G, A,2 G,2 | F,2[K:treble] D4 | D>D D2 D2 | D2 D4 | F,>G, A,2 A,2 | A,2 D2 D2 | A,2 A,4 | %7
 F,>G, A,2 G,2 | F,2[K:treble] D4 | D>D D2 D2 | D2 D4 | F,>G, A,2 A,2 | B,2 B,2 F,2 | G,2 F,4 | %14
 z6 | z2[K:treble] C2 C2 | C2 A,4 | A,2 A,4 | D>D A,2 D2 | D2 D2[K:bass] A,2 | B,B, A,2 F,2 | %21
 G,2 F,4- | F,4 z2 |] %23
V:3
 D,>D, D,2 D,2 | D,2 D,4 | D,>D, G,2 G,2 | G,2 D,4 | D,>D, D,2 D,2 | D,2 D,2 D,2 | D,2 A,,4 | %7
 D,>D, D,2 D,2 | D,2 D,4 | D,>D, G,2 G,2 | G,2 D,4 | D,>D, D,2 D,2 | G,,2 A,,2 A,,2 | A,,2 D,4 | %14
 z6 | z2 A,,2 A,,2 | A,,2 A,,4 | C,2 D,4 | D,>D, D,2 D,2 | D,2 D,2 D,2 | G,,G,, A,,2 A,,2 | %21
 A,,2 D,4- | D,4 z2 |] %23

